X: 57
T:Tumblers Hornpipe,aka. WI.057
T:Washington Hp,aka. WI.057
M:C
Q:180
C:Untitled in MS.Washington Hp,aka
S:Wm Irwin, Folio MS, c1850. AGG's Transcription
R:Hornpipe
O:England
A:Lake District
Z:vmp.Chris Partington.2005
K:Bb
dc|Bcde .f(BAB) | gBaB bBAB | GBFB EBDB | cdec BAGF |!
 Bcde fBAB | gBaB bBAB | GBFB EBDB | ecBA B2:|!
|:de| .f(BAB) .f(BAB) | gBaB .b(BAB) | gaba gfed | edcB BAGF |!
 Bcde f(BAB) |gBaB bBAB | GBFB EBDB | ecBA B4|]
